img/price.svg

<svg fill="none" height="16" viewBox="0 0 16 16" width="16" xmlns="http://www.w3.org/2000/svg"><path clip-rule="evenodd" d="m8 15.0029c3.866 0 7-3.134 7-6.99997 0-3.86599-3.134-7-7-7-3.86599 0-7 3.13401-7 7 0 3.86597 3.13401 6.99997 7 6.99997zm-1.81543-4.1777v1.0259h1.35352v-1.0259h2.09472v-.6284h-2.09472v-.99905h1.375c.50488 0 .9471-.10205 1.32661-.30615.3796-.2041.675-.48519.8863-.84326.2112-.35807.3169-.76807.3169-1.22998v-.01074c0-.46192-.1039-.87191-.3116-1.22998-.2041-.36166-.4923-.64453-.8647-.84864-.36881-.2041-.80208-.30615-1.2998-.30615h-2.78223v4.14649h-1.04199v.62841h1.04199v.99905h-1.04199v.6284zm2.39014-2.70704h-1.03662v-2.58349h1.04199c.49414 0 .86474.11458 1.11181.34375.25066.22916.37601.54248.37601.93994v.01074c0 .40104-.12535.71615-.37601.94531-.24707.22917-.61946.34375-1.11718.34375z" fill="#008699" fill-rule="evenodd"/></svg>

<svg width="16" height="16" viewBox="0 0 16 16" fill="none" xmlns="http://www.w3.org/2000/svg">
<path fill-rule="evenodd" clip-rule="evenodd" d="M8 15.0029C11.866 15.0029 15 11.8689 15 8.00293C15 4.13694 11.866 1.00293 8 1.00293C4.13401 1.00293 1 4.13694 1 8.00293C1 11.8689 4.13401 15.0029 8 15.0029ZM6.18457 10.8252L6.18457 11.8511L7.53809 11.8511L7.53809 10.8252L9.63281 10.8252L9.63281 10.1968L7.53809 10.1968L7.53809 9.19775L8.91309 9.19775C9.41797 9.19775 9.86019 9.0957 10.2397 8.8916C10.6193 8.6875 10.9147 8.40641 11.126 8.04834C11.3372 7.69027 11.4429 7.28027 11.4429 6.81836L11.4429 6.80762C11.4429 6.3457 11.339 5.93571 11.1313 5.57764C10.9272 5.21598 10.639 4.93311 10.2666 4.729C9.89779 4.5249 9.46452 4.42285 8.9668 4.42285L6.18457 4.42285L6.18457 8.56934L5.14258 8.56934L5.14258 9.19775L6.18457 9.19775L6.18457 10.1968L5.14258 10.1968L5.14258 10.8252L6.18457 10.8252ZM8.57471 8.11816L7.53809 8.11816L7.53809 5.53467L8.58008 5.53467C9.07422 5.53467 9.44482 5.64925 9.69189 5.87842C9.94255 6.10758 10.0679 6.4209 10.0679 6.81836L10.0679 6.8291C10.0679 7.23014 9.94255 7.54525 9.69189 7.77441C9.44482 8.00358 9.07243 8.11816 8.57471 8.11816Z" fill="#008699"/>
</svg>
